X:81
T: Wassermanns Braut
N: A0090
O: Europa, Mitteleuropa, Deutschland
N: Aus der Breslauer Gegend, bei Hoffmann, Schles. BL. No. 1.
R: Romanze, Ballade, Lied
M: 2/4
L: 1/16
K: F
C2 | F2E2F2G2 | A3GF4 |
A2G2A2B2 | c3BA2F2 | f4d2f2 | c4z2
c2 | d2B2G2B2 | c2A2F2
G2 | A2c2B2G2 | F4z2

@@@ Tune index: 81
